X: 2
T: Our House At Home
M: 4/4
L: 1/8
R: reel
K: G Major
d2 cA BG G2 | AGFG ABcA | d2 cA BGGg |1 fdcA GABc :|2 fdcA G4 ||
fede fgaf | dg g2 dg g2 | fede fgag | bgaf g2 ag |
fede fgaf | dg g2 dg g2 | d2 cA BGGg | fdcA G4 |
